public/images/logo/figma.svg

<svg width="66" height="100" viewBox="0 0 66 100" fill="none" xmlns="http://www.w3.org/2000/svg">
<g clip-path="url(#clip0_0_238)">
<path d="M16.5009 100C25.6084 100 33.0001 92.5333 33.0001 83.3333V66.6667H16.5009C7.39334 66.6667 0.00170898 74.1333 0.00170898 83.3333C0.00170898 92.5333 7.39334 100 16.5009 100Z" fill="#0ACF83"/>
<path d="M0.00170898 50C0.00170898 40.8 7.39334 33.3333 16.5009 33.3333H33.0001V66.6667H16.5009C7.39334 66.6667 0.00170898 59.2 0.00170898 50Z" fill="#A259FF"/>
<path d="M0.00170898 16.6667C0.00170898 7.46667 7.39334 0 16.5009 0H33.0001V33.3333H16.5009C7.39334 33.3333 0.00170898 25.8667 0.00170898 16.6667Z" fill="#F24E1E"/>
<path d="M33 0H49.4992C58.6067 0 65.9983 7.46667 65.9983 16.6667C65.9983 25.8667 58.6067 33.3333 49.4992 33.3333H33V0Z" fill="#FF7262"/>
<path d="M65.9983 50C65.9983 59.2 58.6067 66.6667 49.4992 66.6667C40.3916 66.6667 33 59.2 33 50C33 40.8 40.3916 33.3333 49.4992 33.3333C58.6067 33.3333 65.9983 40.8 65.9983 50Z" fill="#1ABCFE"/>
</g>
<defs>
<clipPath id="clip0_0_238">
<rect width="66" height="100" fill="white"/>
</clipPath>
</defs>
</svg>

<svg xmlns="http://www.w3.org/2000/svg" width="66" height="100" fill="none"><g clip-path="url(#a)"><path fill="#0ACF83" d="M16.5 100c9.108 0 16.5-7.467 16.5-16.667V66.667H16.5C7.394 66.667.003 74.133.003 83.333S7.393 100 16.5 100Z"/><path fill="#A259FF" d="M.002 50c0-9.2 7.391-16.667 16.499-16.667H33v33.334H16.5C7.393 66.667 0 59.2 0 50Z"/><path fill="#F24E1E" d="M.002 16.667C.002 7.467 7.393 0 16.5 0H33v33.333H16.5C7.393 33.333 0 25.867 0 16.667Z"/><path fill="#FF7262" d="M33 0h16.5c9.107 0 16.498 7.467 16.498 16.667 0 9.2-7.391 16.666-16.499 16.666H33V0Z"/><path fill="#1ABCFE" d="M65.998 50c0 9.2-7.391 16.667-16.499 16.667C40.392 66.667 33 59.2 33 50c0-9.2 7.392-16.667 16.5-16.667 9.107 0 16.498 7.467 16.498 16.667Z"/></g><defs><clipPath id="a"><path fill="#fff" d="M0 0h66v100H0z"/></clipPath></defs></svg>
